images/3235257.svg

<?xml version="1.0" encoding="UTF-8"?>
<svg xmlns="http://www.w3.org/2000/svg" xmlns:xlink="http://www.w3.org/1999/xlink" width="300pt" height="300pt" viewBox="0 0 300 300" version="1.1">
<defs>
<g>
<symbol overflow="visible" id="glyph0-0">
<path style="stroke:none;" d="M 0.546875 1.9375 L 0.546875 -7.75 L 6.046875 -7.75 L 6.046875 1.9375 Z M 1.171875 1.328125 L 5.4375 1.328125 L 5.4375 -7.140625 L 1.171875 -7.140625 Z M 1.171875 1.328125 "/>
</symbol>
<symbol overflow="visible" id="glyph0-1">
<path style="stroke:none;" d="M 1.078125 -8.015625 L 2.546875 -8.015625 L 6.09375 -1.3125 L 6.09375 -8.015625 L 7.15625 -8.015625 L 7.15625 0 L 5.6875 0 L 2.125 -6.703125 L 2.125 0 L 1.078125 0 Z M 1.078125 -8.015625 "/>
</symbol>
<symbol overflow="visible" id="glyph0-2">
<path style="stroke:none;" d="M 4.328125 -7.28125 C 3.546875 -7.28125 2.921875 -6.984375 2.453125 -6.390625 C 1.992188 -5.804688 1.765625 -5.007812 1.765625 -4 C 1.765625 -2.988281 1.992188 -2.1875 2.453125 -1.59375 C 2.921875 -1.007812 3.546875 -0.71875 4.328125 -0.71875 C 5.117188 -0.71875 5.742188 -1.007812 6.203125 -1.59375 C 6.660156 -2.1875 6.890625 -2.988281 6.890625 -4 C 6.890625 -5.007812 6.660156 -5.804688 6.203125 -6.390625 C 5.742188 -6.984375 5.117188 -7.28125 4.328125 -7.28125 Z M 4.328125 -8.171875 C 5.453125 -8.171875 6.351562 -7.789062 7.03125 -7.03125 C 7.707031 -6.28125 8.046875 -5.269531 8.046875 -4 C 8.046875 -2.738281 7.707031 -1.726562 7.03125 -0.96875 C 6.351562 -0.21875 5.453125 0.15625 4.328125 0.15625 C 3.203125 0.15625 2.300781 -0.21875 1.625 -0.96875 C 0.957031 -1.71875 0.625 -2.726562 0.625 -4 C 0.625 -5.269531 0.957031 -6.28125 1.625 -7.03125 C 2.300781 -7.789062 3.203125 -8.171875 4.328125 -8.171875 Z M 4.328125 -8.171875 "/>
</symbol>
</g>
</defs>
<g id="surface34181">
<rect x="0" y="0" width="300" height="300" style="fill:rgb(100%,100%,100%);fill-opacity:1;stroke:none;"/>
<path style="fill:none;stroke-width:1.2;stroke-linecap:butt;stroke-linejoin:miter;stroke:rgb(0%,0%,0%);stroke-opacity:1;stroke-miterlimit:10;" d="M 35.25 148.300781 L 49.777344 123.621094 "/>
<path style="fill:none;stroke-width:1.2;stroke-linecap:butt;stroke-linejoin:miter;stroke:rgb(0%,0%,0%);stroke-opacity:1;stroke-miterlimit:10;" d="M 42.507812 149.25 L 54.132812 129.507812 "/>
<path style="fill:none;stroke-width:1.2;stroke-linecap:butt;stroke-linejoin:miter;stroke:rgb(0%,0%,0%);stroke-opacity:1;stroke-miterlimit:10;" d="M 49.355469 173.21875 L 35.25 148.300781 "/>
<path style="fill:none;stroke-width:1.2;stroke-linecap:butt;stroke-linejoin:miter;stroke:rgb(0%,0%,0%);stroke-opacity:1;stroke-miterlimit:10;" d="M 49.777344 123.621094 L 78.414062 123.867188 "/>
<path style="fill:none;stroke-width:1.2;stroke-linecap:butt;stroke-linejoin:miter;stroke:rgb(0%,0%,0%);stroke-opacity:1;stroke-miterlimit:10;" d="M 78.414062 123.867188 L 92.519531 148.785156 "/>
<path style="fill:none;stroke-width:1.2;stroke-linecap:butt;stroke-linejoin:miter;stroke:rgb(0%,0%,0%);stroke-opacity:1;stroke-miterlimit:10;" d="M 73.960938 129.675781 L 85.246094 149.613281 "/>
<path style="fill:none;stroke-width:1.2;stroke-linecap:butt;stroke-linejoin:miter;stroke:rgb(0%,0%,0%);stroke-opacity:1;stroke-miterlimit:10;" d="M 92.519531 148.785156 L 77.992188 173.464844 "/>
<path style="fill:none;stroke-width:1.2;stroke-linecap:butt;stroke-linejoin:miter;stroke:rgb(0%,0%,0%);stroke-opacity:1;stroke-miterlimit:10;" d="M 92.519531 148.785156 L 121.15625 149.027344 "/>
<path style="fill:none;stroke-width:1.2;stroke-linecap:butt;stroke-linejoin:miter;stroke:rgb(0%,0%,0%);stroke-opacity:1;stroke-miterlimit:10;" d="M 77.992188 173.464844 L 49.355469 173.21875 "/>
<path style="fill:none;stroke-width:1.2;stroke-linecap:butt;stroke-linejoin:miter;stroke:rgb(0%,0%,0%);stroke-opacity:1;stroke-miterlimit:10;" d="M 75.1875 166.699219 L 52.277344 166.507812 "/>
<path style="fill:none;stroke-width:1.2;stroke-linecap:butt;stroke-linejoin:miter;stroke:rgb(0%,0%,0%);stroke-opacity:1;stroke-miterlimit:10;" d="M 121.15625 149.027344 L 135.261719 173.949219 "/>
<path style="fill:none;stroke-width:1.2;stroke-linecap:butt;stroke-linejoin:miter;stroke:rgb(0%,0%,0%);stroke-opacity:1;stroke-miterlimit:10;" d="M 135.261719 173.949219 L 163.898438 174.191406 "/>
<path style="fill:none;stroke-width:1.2;stroke-linecap:butt;stroke-linejoin:miter;stroke:rgb(0%,0%,0%);stroke-opacity:1;stroke-miterlimit:10;" d="M 163.898438 174.191406 L 170.949219 186.652344 "/>
<path style="fill:none;stroke-width:1.2;stroke-linecap:butt;stroke-linejoin:miter;stroke:rgb(0%,0%,100%);stroke-opacity:1;stroke-miterlimit:10;" d="M 170.949219 186.652344 L 178.003906 199.113281 "/>
<path style="fill:none;stroke-width:1.2;stroke-linecap:butt;stroke-linejoin:miter;stroke:rgb(0%,0%,0%);stroke-opacity:1;stroke-miterlimit:10;" d="M 171.171875 173.363281 L 176.8125 183.332031 "/>
<path style="fill:none;stroke-width:1.2;stroke-linecap:butt;stroke-linejoin:miter;stroke:rgb(0%,0%,100%);stroke-opacity:1;stroke-miterlimit:10;" d="M 176.8125 183.332031 L 182.457031 193.300781 "/>
<path style="fill:none;stroke-width:1.2;stroke-linecap:butt;stroke-linejoin:miter;stroke:rgb(0%,0%,0%);stroke-opacity:1;stroke-miterlimit:10;" d="M 178.425781 149.515625 L 163.898438 174.191406 "/>
<path style="fill:none;stroke-width:1.2;stroke-linecap:butt;stroke-linejoin:miter;stroke:rgb(0%,0%,100%);stroke-opacity:1;stroke-miterlimit:10;" d="M 178.003906 199.113281 L 192.320312 199.234375 "/>
<path style="fill:none;stroke-width:1.2;stroke-linecap:butt;stroke-linejoin:miter;stroke:rgb(0%,0%,0%);stroke-opacity:1;stroke-miterlimit:10;" d="M 192.320312 199.234375 L 206.640625 199.355469 "/>
<path style=" stroke:none;fill-rule:nonzero;fill:rgb(100%,100%,100%);fill-opacity:1;" d="M 174.003906 192.613281 L 182.003906 192.613281 L 182.003906 205.613281 L 174.003906 205.613281 Z M 174.003906 192.613281 "/>
<g style="fill:rgb(0%,0%,100%);fill-opacity:1;">
  <use xlink:href="#glyph0-1" x="174.003906" y="202.514648"/>
</g>
<path style="fill:none;stroke-width:1.2;stroke-linecap:butt;stroke-linejoin:miter;stroke:rgb(0%,0%,0%);stroke-opacity:1;stroke-miterlimit:10;" d="M 206.640625 199.355469 L 220.746094 224.273438 "/>
<path style="fill:none;stroke-width:1.2;stroke-linecap:butt;stroke-linejoin:miter;stroke:rgb(0%,0%,0%);stroke-opacity:1;stroke-miterlimit:10;" d="M 213.914062 198.527344 L 225.199219 218.464844 "/>
<path style="fill:none;stroke-width:1.2;stroke-linecap:butt;stroke-linejoin:miter;stroke:rgb(0%,0%,0%);stroke-opacity:1;stroke-miterlimit:10;" d="M 221.167969 174.675781 L 206.640625 199.355469 "/>
<path style="fill:none;stroke-width:1.2;stroke-linecap:butt;stroke-linejoin:miter;stroke:rgb(0%,0%,0%);stroke-opacity:1;stroke-miterlimit:10;" d="M 220.746094 224.273438 L 235.0625 224.394531 "/>
<path style="fill:none;stroke-width:1.2;stroke-linecap:butt;stroke-linejoin:miter;stroke:rgb(0%,0%,100%);stroke-opacity:1;stroke-miterlimit:10;" d="M 235.0625 224.394531 L 249.382812 224.515625 "/>
<path style="fill:none;stroke-width:1.2;stroke-linecap:butt;stroke-linejoin:miter;stroke:rgb(0%,0%,100%);stroke-opacity:1;stroke-miterlimit:10;" d="M 249.382812 224.515625 L 256.644531 212.179688 "/>
<path style="fill:none;stroke-width:1.2;stroke-linecap:butt;stroke-linejoin:miter;stroke:rgb(0%,0%,0%);stroke-opacity:1;stroke-miterlimit:10;" d="M 256.644531 212.179688 L 263.910156 199.839844 "/>
<path style="fill:none;stroke-width:1.2;stroke-linecap:butt;stroke-linejoin:miter;stroke:rgb(0%,0%,100%);stroke-opacity:1;stroke-miterlimit:10;" d="M 245.027344 218.632812 L 250.839844 208.761719 "/>
<path style="fill:none;stroke-width:1.2;stroke-linecap:butt;stroke-linejoin:miter;stroke:rgb(0%,0%,0%);stroke-opacity:1;stroke-miterlimit:10;" d="M 250.839844 208.761719 L 256.648438 198.890625 "/>
<path style=" stroke:none;fill-rule:nonzero;fill:rgb(100%,100%,100%);fill-opacity:1;" d="M 245.382812 218.015625 L 253.382812 218.015625 L 253.382812 231.015625 L 245.382812 231.015625 Z M 245.382812 218.015625 "/>
<g style="fill:rgb(0%,0%,100%);fill-opacity:1;">
  <use xlink:href="#glyph0-1" x="245.382812" y="227.916992"/>
</g>
<path style="fill:none;stroke-width:1.2;stroke-linecap:butt;stroke-linejoin:miter;stroke:rgb(0%,0%,0%);stroke-opacity:1;stroke-miterlimit:10;" d="M 263.910156 199.839844 L 256.855469 187.378906 "/>
<path style="fill:none;stroke-width:1.2;stroke-linecap:butt;stroke-linejoin:miter;stroke:rgb(0%,0%,100%);stroke-opacity:1;stroke-miterlimit:10;" d="M 256.855469 187.378906 L 249.800781 174.921875 "/>
<path style="fill:none;stroke-width:1.2;stroke-linecap:butt;stroke-linejoin:miter;stroke:rgb(0%,0%,100%);stroke-opacity:1;stroke-miterlimit:10;" d="M 249.800781 174.921875 L 235.484375 174.796875 "/>
<path style="fill:none;stroke-width:1.2;stroke-linecap:butt;stroke-linejoin:miter;stroke:rgb(0%,0%,0%);stroke-opacity:1;stroke-miterlimit:10;" d="M 235.484375 174.796875 L 221.167969 174.675781 "/>
<path style="fill:none;stroke-width:1.2;stroke-linecap:butt;stroke-linejoin:miter;stroke:rgb(0%,0%,100%);stroke-opacity:1;stroke-miterlimit:10;" d="M 246.882812 181.632812 L 235.425781 181.535156 "/>
<path style="fill:none;stroke-width:1.2;stroke-linecap:butt;stroke-linejoin:miter;stroke:rgb(0%,0%,0%);stroke-opacity:1;stroke-miterlimit:10;" d="M 235.425781 181.535156 L 223.972656 181.4375 "/>
<path style=" stroke:none;fill-rule:nonzero;fill:rgb(100%,100%,100%);fill-opacity:1;" d="M 245.800781 168.421875 L 253.800781 168.421875 L 253.800781 181.421875 L 245.800781 181.421875 Z M 245.800781 168.421875 "/>
<g style="fill:rgb(0%,0%,100%);fill-opacity:1;">
  <use xlink:href="#glyph0-1" x="245.800781" y="178.323242"/>
</g>
<path style="fill:none;stroke-width:1.2;stroke-linecap:butt;stroke-linejoin:miter;stroke:rgb(0%,0%,0%);stroke-opacity:1;stroke-miterlimit:10;" d="M 221.167969 174.675781 L 214.113281 162.21875 "/>
<path style="fill:none;stroke-width:1.2;stroke-linecap:butt;stroke-linejoin:miter;stroke:rgb(0%,0%,100%);stroke-opacity:1;stroke-miterlimit:10;" d="M 214.113281 162.21875 L 207.058594 149.757812 "/>
<path style="fill:none;stroke-width:1.2;stroke-linecap:butt;stroke-linejoin:miter;stroke:rgb(0%,0%,100%);stroke-opacity:1;stroke-miterlimit:10;" d="M 207.058594 149.757812 L 192.742188 149.636719 "/>
<path style="fill:none;stroke-width:1.2;stroke-linecap:butt;stroke-linejoin:miter;stroke:rgb(0%,0%,0%);stroke-opacity:1;stroke-miterlimit:10;" d="M 192.742188 149.636719 L 178.425781 149.515625 "/>
<path style="fill:none;stroke-width:1.2;stroke-linecap:butt;stroke-linejoin:miter;stroke:rgb(0%,0%,100%);stroke-opacity:1;stroke-miterlimit:10;" d="M 207.058594 149.757812 L 214.324219 137.417969 "/>
<path style="fill:none;stroke-width:1.2;stroke-linecap:butt;stroke-linejoin:miter;stroke:rgb(0%,0%,0%);stroke-opacity:1;stroke-miterlimit:10;" d="M 214.324219 137.417969 L 221.585938 125.078125 "/>
<path style=" stroke:none;fill-rule:nonzero;fill:rgb(100%,100%,100%);fill-opacity:1;" d="M 203.058594 143.257812 L 211.058594 143.257812 L 211.058594 156.257812 L 203.058594 156.257812 Z M 203.058594 143.257812 "/>
<g style="fill:rgb(0%,0%,100%);fill-opacity:1;">
  <use xlink:href="#glyph0-1" x="203.058594" y="153.15918"/>
</g>
<path style="fill:none;stroke-width:1.2;stroke-linecap:butt;stroke-linejoin:miter;stroke:rgb(0%,0%,0%);stroke-opacity:1;stroke-miterlimit:10;" d="M 181.355469 147.855469 L 174.304688 135.394531 "/>
<path style="fill:none;stroke-width:1.2;stroke-linecap:butt;stroke-linejoin:miter;stroke:rgb(100%,0%,0%);stroke-opacity:1;stroke-miterlimit:10;" d="M 174.304688 135.394531 L 167.25 122.933594 "/>
<path style="fill:none;stroke-width:1.2;stroke-linecap:butt;stroke-linejoin:miter;stroke:rgb(0%,0%,0%);stroke-opacity:1;stroke-miterlimit:10;" d="M 175.492188 151.175781 L 168.4375 138.714844 "/>
<path style="fill:none;stroke-width:1.2;stroke-linecap:butt;stroke-linejoin:miter;stroke:rgb(100%,0%,0%);stroke-opacity:1;stroke-miterlimit:10;" d="M 168.4375 138.714844 L 161.386719 126.253906 "/>
<path style=" stroke:none;fill-rule:nonzero;fill:rgb(100%,100%,100%);fill-opacity:1;" d="M 155.316406 118.09375 L 164.316406 118.09375 L 164.316406 131.09375 L 155.316406 131.09375 Z M 155.316406 118.09375 "/>
<g style="fill:rgb(100%,0%,0%);fill-opacity:1;">
  <use xlink:href="#glyph0-2" x="155.316406" y="127.995117"/>
</g>
<path style="fill:none;stroke-width:1.2;stroke-linecap:butt;stroke-linejoin:miter;stroke:rgb(0%,0%,0%);stroke-opacity:1;stroke-miterlimit:10;" d="M 221.585938 125.078125 L 250.222656 125.324219 "/>
<path style="fill:none;stroke-width:1.2;stroke-linecap:butt;stroke-linejoin:miter;stroke:rgb(0%,0%,0%);stroke-opacity:1;stroke-miterlimit:10;" d="M 224.507812 118.367188 L 247.414062 118.5625 "/>
<path style="fill:none;stroke-width:1.2;stroke-linecap:butt;stroke-linejoin:miter;stroke:rgb(0%,0%,0%);stroke-opacity:1;stroke-miterlimit:10;" d="M 207.480469 100.160156 L 221.585938 125.078125 "/>
<path style="fill:none;stroke-width:1.2;stroke-linecap:butt;stroke-linejoin:miter;stroke:rgb(0%,0%,0%);stroke-opacity:1;stroke-miterlimit:10;" d="M 250.222656 125.324219 L 264.75 100.644531 "/>
<path style="fill:none;stroke-width:1.2;stroke-linecap:butt;stroke-linejoin:miter;stroke:rgb(0%,0%,0%);stroke-opacity:1;stroke-miterlimit:10;" d="M 264.75 100.644531 L 250.644531 75.726562 "/>
<path style="fill:none;stroke-width:1.2;stroke-linecap:butt;stroke-linejoin:miter;stroke:rgb(0%,0%,0%);stroke-opacity:1;stroke-miterlimit:10;" d="M 257.476562 101.472656 L 246.191406 81.535156 "/>
<path style="fill:none;stroke-width:1.2;stroke-linecap:butt;stroke-linejoin:miter;stroke:rgb(0%,0%,0%);stroke-opacity:1;stroke-miterlimit:10;" d="M 250.644531 75.726562 L 222.007812 75.484375 "/>
<path style="fill:none;stroke-width:1.2;stroke-linecap:butt;stroke-linejoin:miter;stroke:rgb(0%,0%,0%);stroke-opacity:1;stroke-miterlimit:10;" d="M 222.007812 75.484375 L 207.480469 100.160156 "/>
<path style="fill:none;stroke-width:1.2;stroke-linecap:butt;stroke-linejoin:miter;stroke:rgb(0%,0%,0%);stroke-opacity:1;stroke-miterlimit:10;" d="M 226.363281 81.367188 L 214.738281 101.109375 "/>
</g>
</svg>

<svg xmlns="http://www.w3.org/2000/svg" xmlns:xlink="http://www.w3.org/1999/xlink" width="300pt" height="300pt" viewBox="0 0 300 300"><defs><symbol overflow="visible"><path d="M.547 1.938V-7.75h5.5v9.688zm.625-.61h4.266v-8.47H1.171zm0 0"/></symbol><symbol overflow="visible" id="a"><path d="M1.078-8.016h1.47l3.546 6.704v-6.704h1.062V0H5.688L2.124-6.703V0H1.078zm0 0"/></symbol><symbol overflow="visible" id="b"><path d="M4.328-7.28c-.78 0-1.406.296-1.875.89-.46.585-.687 1.382-.687 2.39 0 1.012.226 1.813.687 2.406.47.586 1.094.875 1.875.875.79 0 1.414-.288 1.875-.874.457-.593.688-1.394.688-2.406 0-1.008-.23-1.805-.687-2.39-.46-.594-1.086-.89-1.875-.89zm0-.892c1.125 0 2.024.383 2.703 1.14C7.708-6.28 8.048-5.27 8.048-4c0 1.262-.34 2.273-1.016 3.03C6.353-.22 5.454.157 4.33.157S2.3-.22 1.625-.97c-.668-.75-1-1.757-1-3.03 0-1.27.332-2.28 1-3.03.676-.76 1.578-1.142 2.703-1.142zm0 0"/></symbol></defs><g><path fill="#fff" d="M0 0h300v300H0z"/><path d="M35.25 148.3l14.527-24.68M42.508 149.25l11.625-19.742M49.355 173.22L35.25 148.3M49.777 123.62l28.637.247M78.414 123.867l14.106 24.918M73.96 129.676l11.286 19.937M92.52 148.785l-14.528 24.68M92.52 148.785l28.636.242M77.992 173.465l-28.637-.246M75.188 166.7l-22.91-.192M121.156 149.027l14.106 24.922M135.262 173.95l28.636.24M163.898 174.19l7.05 12.462" stroke-width="1.2" stroke="#000" stroke-miterlimit="10" fill="none"/><path d="M170.95 186.652l7.054 12.46" stroke-width="1.2" stroke="#00f" stroke-miterlimit="10" fill="none"/><path d="M171.172 173.363l5.64 9.97" stroke-width="1.2" stroke="#000" stroke-miterlimit="10" fill="none"/><path d="M176.813 183.332l5.644 9.97" stroke-width="1.2" stroke="#00f" stroke-miterlimit="10" fill="none"/><path d="M178.426 149.516l-14.528 24.675" stroke-width="1.2" stroke="#000" stroke-miterlimit="10" fill="none"/><path d="M178.004 199.113l14.316.12" stroke-width="1.2" stroke="#00f" stroke-miterlimit="10" fill="none"/><path d="M192.32 199.234l14.32.12" stroke-width="1.2" stroke="#000" stroke-miterlimit="10" fill="none"/><path d="M174.004 192.613h8v13h-8zm0 0" fill="#fff"/><use xlink:href="#a" x="174.004" y="202.515" fill="#00f"/><path d="M206.64 199.355l14.106 24.918M213.914 198.527l11.285 19.938M221.168 174.676l-14.527 24.68M220.746 224.273l14.316.122" stroke-width="1.2" stroke="#000" stroke-miterlimit="10" fill="none"/><path d="M235.063 224.395l14.32.12M249.383 224.516l7.262-12.336" stroke-width="1.2" stroke="#00f" stroke-miterlimit="10" fill="none"/><path d="M256.645 212.18l7.265-12.34" stroke-width="1.2" stroke="#000" stroke-miterlimit="10" fill="none"/><path d="M245.027 218.633l5.813-9.87" stroke-width="1.2" stroke="#00f" stroke-miterlimit="10" fill="none"/><path d="M250.84 208.762l5.808-9.87" stroke-width="1.2" stroke="#000" stroke-miterlimit="10" fill="none"/><path d="M245.383 218.016h8v13h-8zm0 0" fill="#fff"/><use xlink:href="#a" x="245.383" y="227.917" fill="#00f"/><path d="M263.91 199.84l-7.055-12.46" stroke-width="1.2" stroke="#000" stroke-miterlimit="10" fill="none"/><path d="M256.855 187.38L249.8 174.92M249.8 174.922l-14.316-.125" stroke-width="1.2" stroke="#00f" stroke-miterlimit="10" fill="none"/><path d="M235.484 174.797l-14.316-.12" stroke-width="1.2" stroke="#000" stroke-miterlimit="10" fill="none"/><path d="M246.883 181.633l-11.457-.098" stroke-width="1.2" stroke="#00f" stroke-miterlimit="10" fill="none"/><path d="M235.426 181.535l-11.453-.097" stroke-width="1.2" stroke="#000" stroke-miterlimit="10" fill="none"/><path d="M245.8 168.422h8v13h-8zm0 0" fill="#fff"/><use xlink:href="#a" x="245.801" y="178.323" fill="#00f"/><path d="M221.168 174.676l-7.055-12.457" stroke-width="1.2" stroke="#000" stroke-miterlimit="10" fill="none"/><path d="M214.113 162.22l-7.054-12.462M207.06 149.758l-14.318-.12" stroke-width="1.2" stroke="#00f" stroke-miterlimit="10" fill="none"/><path d="M192.742 149.637l-14.316-.12" stroke-width="1.2" stroke="#000" stroke-miterlimit="10" fill="none"/><path d="M207.06 149.758l7.264-12.34" stroke-width="1.2" stroke="#00f" stroke-miterlimit="10" fill="none"/><path d="M214.324 137.418l7.262-12.34" stroke-width="1.2" stroke="#000" stroke-miterlimit="10" fill="none"/><path d="M203.06 143.258h8v13h-8zm0 0" fill="#fff"/><use xlink:href="#a" x="203.059" y="153.159" fill="#00f"/><path d="M181.355 147.855l-7.05-12.46" stroke-width="1.2" stroke="#000" stroke-miterlimit="10" fill="none"/><path d="M174.305 135.395l-7.055-12.46" stroke-width="1.2" stroke="#f00" stroke-miterlimit="10" fill="none"/><path d="M175.492 151.176l-7.054-12.46" stroke-width="1.2" stroke="#000" stroke-miterlimit="10" fill="none"/><path d="M168.438 138.715l-7.05-12.46" stroke-width="1.2" stroke="#f00" stroke-miterlimit="10" fill="none"/><path d="M155.316 118.094h9v13h-9zm0 0" fill="#fff"/><use xlink:href="#b" x="155.316" y="127.995" fill="#f00"/><path d="M221.586 125.078l28.637.246M224.508 118.367l22.906.195M207.48 100.16l14.106 24.918M250.223 125.324l14.527-24.68M264.75 100.645l-14.105-24.918M257.477 101.473L246.19 81.535M250.645 75.727l-28.637-.243M222.008 75.484L207.48 100.16M226.363 81.367l-11.625 19.742" stroke-width="1.2" stroke="#000" stroke-miterlimit="10" fill="none"/></g></svg>
